Setup/v9/Assets/Themes/Kobe - Light/Crop.svg

<svg width="20" height="20" viewBox="0 0 20 20" fill="none" xmlns="http://www.w3.org/2000/svg">
<g clip-path="url(#clip0_806_833)">
<path fill-rule="evenodd" clip-rule="evenodd" d="M4.05322 1.02893C4.05322 0.752788 4.27708 0.528931 4.55322 0.528931C4.82936 0.528931 5.05322 0.752788 5.05322 1.02893V8.44007V13.8512C5.05322 14.6796 5.7248 15.3512 6.55322 15.3512H18.7769C19.0531 15.3512 19.2769 15.5751 19.2769 15.8512C19.2769 16.1274 19.0531 16.3512 18.7769 16.3512H15.2131V19.0274C15.2131 19.3036 14.9892 19.5274 14.7131 19.5274C14.437 19.5274 14.2131 19.3036 14.2131 19.0274V16.3512H6.55322C5.17251 16.3512 4.05322 15.2319 4.05322 13.8512V8.44007V5.76389H1.2515C0.975356 5.76389 0.751498 5.54003 0.751498 5.26389C0.751498 4.98774 0.975356 4.76389 1.2515 4.76389H4.05322V1.02893ZM15.2131 13.7338C15.2131 14.0099 14.9893 14.2338 14.7131 14.2338C14.437 14.2338 14.2131 14.0099 14.2131 13.7338L14.2131 9.49883V7.26389C14.2131 6.43546 13.5416 5.76389 12.7131 5.76389L6.5853 5.76389C6.30915 5.76389 6.0853 5.54003 6.0853 5.26389C6.0853 4.98775 6.30915 4.76389 6.5853 4.76389L12.7131 4.76389C14.0938 4.76389 15.2131 5.88318 15.2131 7.26389V9.49883L15.2131 13.7338Z" fill="black"/>
</g>
<defs>
<clipPath id="clip0_806_833">
<rect width="20" height="20" fill="white"/>
</clipPath>
</defs>
</svg>

<svg xmlns="http://www.w3.org/2000/svg" width="20" height="20" fill="none"><g><path fill="#000" fill-rule="evenodd" d="M4.053 1.029a.5.5 0 0 1 1 0V13.85a1.5 1.5 0 0 0 1.5 1.5h12.224a.5.5 0 1 1 0 1h-3.564v2.676a.5.5 0 1 1-1 0v-2.676h-7.66a2.5 2.5 0 0 1-2.5-2.5V5.764H1.252a.5.5 0 0 1 0-1h2.801V1.029Zm11.16 12.705a.5.5 0 1 1-1 0V7.264a1.5 1.5 0 0 0-1.5-1.5H6.585a.5.5 0 1 1 0-1h6.128a2.5 2.5 0 0 1 2.5 2.5V13.734Z" clip-rule="evenodd"/></g></svg>
